X: 15
T: Ships In Full Sail, The
Z: UPipes & harp
S: https://thesession.org/tunes/261#setting50300
R: jig
M: 6/8
L: 1/8
K: Gmaj
|:DGG BGG|dGG BGG|efg dBG|AGA BGE|
DGG BGG|dGG BGG|efg dBG|AGF G3:|
|:dgg bgg|aga bge|dgg bgg|aba age|
dgg bgg|aga bgd|efg dBG|AGF G3:|

